icons/detekt.svg

<!--
  - The MIT License (MIT)
  -
  - Copyright (c) 2015-2024 Elior "Mallowigi" Boukhobza
  -
  - Permission is hereby granted, free of charge, to any person obtaining a copy
  - of this software and associated documentation files (the "Software"), to deal
  - in the Software without restriction, including without limitation the rights
  - to use, copy, modify, merge, publish, distribute, sublicense, and/or sell
  - copies of the Software, and to permit persons to whom the Software is
  - furnished to do so, subject to the following conditions:
  -
  - The above copyright notice and this permission notice shall be included in all
  - copies or substantial portions of the Software.
  -
  - THE SOFTWARE IS PROVIDED "AS IS", WITHOUT WARRANTY OF ANY KIND, EXPRESS OR
  - IMPLIED, INCLUDING BUT NOT LIMITED TO THE WARRANTIES OF MERCHANTABILITY,
  - FITNESS FOR A PARTICULAR PURPOSE AND NONINFRINGEMENT. IN NO EVENT SHALL THE
  - AUTHORS OR COPYRIGHT HOLDERS BE LIABLE FOR ANY CLAIM, DAMAGES OR OTHER
  - LIABILITY, WHETHER IN AN ACTION OF CONTRACT, TORT OR OTHERWISE, ARISING FROM,
  - OUT OF OR IN CONNECTION WITH THE SOFTWARE OR THE USE OR OTHER DEALINGS IN THE
  - SOFTWARE.
  -
  -->

<svg  width="16px" height="16px" viewBox="0 0 100 94" xmlns="http://www.w3.org/2000/svg">
  <defs>
    <mask id="mask">
      <rect x="0" y="0" width="100%" height="100%" fill="white"/>
      <path
          d="M17.8684 46.4581C16.7036 46.4581 15.8168 46.0908 15.208 45.3562C14.5991 44.5922 14.2947 43.6813 14.2947 42.6235V42.4471C14.2947 41.3893 14.5991 40.4931 15.208 39.7585C15.8168 38.9945 16.7036 38.6125 17.8684 38.6125C19.0331 38.6125 19.9199 38.9945 20.5288 39.7585C21.1376 40.4931 21.4421 41.3893 21.4421 42.4471V42.6235C21.4421 43.6813 21.1376 44.5922 20.5288 45.3562C19.9199 46.0908 19.0331 46.4581 17.8684 46.4581ZM14.6123 19.4199V14.2948H21.1244V19.4199L19.0596 34.582H16.6771L14.6123 19.4199Z"
          fill="black"/>
      <path
          d="M35.737 46.4581C34.5723 46.4581 33.6855 46.0908 33.0766 45.3562C32.4678 44.5922 32.1633 43.6813 32.1633 42.6235V42.4471C32.1633 41.3893 32.4678 40.4931 33.0766 39.7585C33.6855 38.9945 34.5723 38.6125 35.737 38.6125C36.9018 38.6125 37.7886 38.9945 38.3974 39.7585C39.0063 40.4931 39.3107 41.3893 39.3107 42.4471V42.6235C39.3107 43.6813 39.0063 44.5922 38.3974 45.3562C37.7886 46.0908 36.9018 46.4581 35.737 46.4581ZM32.481 19.4199V14.2948H38.9931V19.4199L36.9283 34.582H34.5458L32.481 19.4199Z"
          fill="black"/>
    </mask>
  </defs>
  <g fill="#7942EE" data-iconColor="Detekt" mask="url('#mask')">
    <path fill-rule="evenodd" clip-rule="evenodd"
          d="M3.90625 0C1.74889 0 0 1.74889 0 3.90625V72.8515C0 75.0089 1.74889 76.7578 3.90625 76.7578H45.6156C47.0146 76.7578 47.9853 75.3543 47.6268 74.0019C47.0089 71.6717 46.6797 69.2239 46.6797 66.6992C46.6797 51.0044 59.4028 38.2812 75.0976 38.2812C77.3639 38.2812 79.5682 38.5465 81.6812 39.0477C83.0182 39.3649 84.375 38.3979 84.375 37.0238V3.90625C84.375 1.74889 82.6261 0 80.4687 0H3.90625Z"/>
    <path
        d="M98.8768 86.8703L97.861 85.8545L95.1358 83.1293L93.6422 81.6356C92.9333 80.9266 92.8679 79.8075 93.4105 78.9644C95.5566 75.6306 96.8047 71.6673 96.8047 67.4164C96.8047 58.8059 91.6916 51.3717 84.3446 47.977C83.1237 47.4129 81.842 46.9598 80.5108 46.6321C79.2711 46.3272 77.9901 46.1299 76.677 46.0518C76.2538 46.0268 75.8284 46.0104 75.3991 46.0104C68.8235 46.0104 62.9334 48.9932 59.0038 53.6735C57.1407 55.8928 55.7209 58.4936 54.8768 61.3412C54.3053 63.2684 53.9934 65.3059 53.9934 67.416C53.9934 67.9526 54.02 68.4824 54.0588 69.0088C54.1563 70.3229 54.3676 71.6049 54.6924 72.8426C55.0418 74.175 55.5155 75.4578 56.1026 76.6764C59.5616 83.8559 66.9114 88.8221 75.3993 88.8221C78.9898 88.8221 82.3748 87.9304 85.3494 86.3607C86.1737 85.9256 87.1963 86.033 87.8554 86.6921L89.5024 88.3391L92.2553 91.0924L93.4551 92.2922C94.2037 93.0408 95.185 93.4152 96.1659 93.4152C97.1469 93.4152 98.1283 93.0408 98.8766 92.2922C100.374 90.7949 100.374 88.3674 98.8768 86.8703ZM75.3993 81.1549C71.3891 81.1549 67.7752 79.4272 65.2616 76.6776C64.2346 75.5543 63.3924 74.2602 62.7811 72.8438C62.2629 71.6444 61.9131 70.3563 61.7567 69.01C61.6959 68.4867 61.6614 67.9563 61.6614 67.4172C61.6614 59.842 67.8243 53.6791 75.3995 53.6791C75.8303 53.6791 76.2561 53.7016 76.6774 53.7404C78.0207 53.8653 79.3071 54.1846 80.5112 54.6696C81.9196 55.2362 83.2118 56.0291 84.345 57.0039C87.2758 59.5254 89.1373 63.2571 89.1373 67.4172C89.1371 74.9918 82.9745 81.1549 75.3993 81.1549Z"/>

  </g>
</svg>

<svg xmlns="http://www.w3.org/2000/svg" xmlns:xlink="http://www.w3.org/1999/xlink" viewBox="0 0 100 94"><defs><mask id="a"><rect width="100%" height="100%" fill="#fff"/><path d="M17.868 46.458q-1.746 0-2.66-1.102-.913-1.146-.913-2.733v-.176q0-1.587.913-2.689.914-1.146 2.66-1.146 1.748 0 2.66 1.146.914 1.102.914 2.69v.175q0 1.588-.913 2.733-.915 1.102-2.66 1.102M14.612 19.42v-5.125h6.512v5.125L19.06 34.582h-2.383zm21.125 27.038q-1.748 0-2.66-1.102-.915-1.146-.914-2.733v-.176q0-1.587.914-2.689.912-1.146 2.66-1.146t2.66 1.146q.915 1.102.914 2.69v.175q0 1.588-.914 2.733-.912 1.102-2.66 1.102M32.481 19.42v-5.125h6.512v5.125l-2.065 15.162h-2.382z"/></mask></defs><g fill="#7942ee" data-iconColor="Detekt" mask="url('#a')"><path fill-rule="evenodd" d="M3.906 0A3.906 3.906 0 0 0 0 3.906v68.946a3.906 3.906 0 0 0 3.906 3.906h41.71c1.399 0 2.37-1.404 2.01-2.756a28.5 28.5 0 0 1-.946-7.303c0-15.695 12.723-28.418 28.418-28.418 2.266 0 4.47.266 6.583.767 1.337.317 2.694-.65 2.694-2.024V3.906A3.906 3.906 0 0 0 80.469 0z" clip-rule="evenodd"/><path d="m98.877 86.87-1.016-1.016-2.725-2.725-1.494-1.493c-.709-.71-.774-1.828-.231-2.672a21.27 21.27 0 0 0 3.394-11.548c0-8.61-5.113-16.044-12.46-19.439a21.3 21.3 0 0 0-7.668-1.925 22 22 0 0 0-1.278-.042c-6.576 0-12.466 2.983-16.395 7.663a21.37 21.37 0 0 0-5.01 13.743c0 .537.026 1.066.065 1.593a21.3 21.3 0 0 0 .633 3.834c.35 1.332.824 2.615 1.41 3.833 3.46 7.18 10.81 12.146 19.297 12.146 3.59 0 6.976-.892 9.95-2.461.825-.435 1.847-.328 2.506.331l1.647 1.647 2.753 2.753 1.2 1.2a3.82 3.82 0 0 0 2.71 1.123 3.834 3.834 0 0 0 2.71-6.545m-23.478-5.715c-4.01 0-7.624-1.728-10.137-4.477a13.8 13.8 0 0 1-2.48-3.834 13.6 13.6 0 0 1-1.025-3.834 14 14 0 0 1-.096-1.593c0-7.575 6.163-13.738 13.739-13.738.43 0 .856.023 1.277.061 1.344.125 2.63.445 3.834.93 1.409.566 2.7 1.36 3.834 2.334 2.93 2.521 4.792 6.253 4.792 10.413 0 7.575-6.162 13.738-13.738 13.738"/></g></svg>
